X:9
T:Sännä-Juiz  F
T:Remigi Blättler (19.12.1899-27.10.1975)
T:Dirigenten-Notiz, Edi Gasser
C:Unterwalden (CH)
%%partsbox
M:3/4
R:Naturjodel
L:1/8
K:F
[P:A] C2 | F3A A/f/e/d/ | c/=B/c/d/ c/A/c/A/ C2 | "rit."A2G2A2 | B4C2 | E3G G/f/e/d/ | 
c/=B/c/d/ c/_B/c/B/ C2 | B2c2B2 | A4C2 | F3A A/f/e/d/ | c/=B/c/d/ c/A/c/A/ C2 | 
F2"rit."E2F2 | G4C2 | E3G G/f/e/d/ | c/=B/c/d/ c/_B/c/B/ C2 | B2"rit."c2B2 | A4 || 
K:F
Q:1/4=120
M:3/4
[P:B]  fe  | e3Ac2 | A2C2F2 | E3Gc2 | B3c ce | d3Bc2 | 
B2C2E2 | F3f ed | c3A cf | !>!d3 A c2 | A2C2F2 | 
E3Gc2 | B3c ce | d3Bc2 | B2C2E2 |  (F6 | F4 ) || 
K:F
M:3/4
[P:C] F2 | f3dB2 | F3B ed | c3AF2 | C3F Ad | c3BE2 | C3E Gd | c3AF2 | 
C4F2 | f3dB2 ||  F3B ed | c3AF2 | C3F Ad | !>!c3BE2 | C3 .c .d.c | (f6 | f3)zF2 | 
f3dB2 | F3B ed | c3AF2 | C3F Ad | c3BE2 | C3E Gd | c3AF2 | 
C4F2 | f3dB2 |  F3B ed | c3AF2 | C3F Ad | !>!c3BE2 | C3 .c .d.c | (f6 | f3)z2 |]
W:
W:notiert Edi Gasser. Angaben: Remigi Blättler
W:
W:UJV-Naturjodelsammlung: Code-Nr: 02-05
W:http://www.naturjodler.ch/code 02.htm  (with AUDIO)
%April 27, 2018

